assets/dist/images/integrations/logos/zapier.svg

<svg xmlns="http://www.w3.org/2000/svg" width="40" height="40" viewBox="0 0 40 40">
  <path fill="#FF4A00" fill-rule="evenodd" d="M23.5938822,20.2465986 C23.5934108,21.3612883 23.389326,22.4279026 23.0179199,23.4134485 C22.0328452,23.7848547 20.9652883,23.9889395 19.8501273,23.9903535 L19.8374014,23.9903535 C18.723183,23.9889395 17.6556261,23.785326 16.6705515,23.4139199 C16.2991453,22.4288452 16.0945892,21.3612883 16.0941178,20.2465986 L16.0941178,20.2334014 C16.0945892,19.119183 16.298674,18.0516261 16.6696088,17.0670228 C17.6546834,16.6951453 18.7227117,16.4905892 19.8374014,16.4901178 L19.8501273,16.4901178 C20.9652883,16.4905892 22.0328452,16.6951453 23.0179199,17.0670228 C23.389326,18.0516261 23.5934108,19.119183 23.5938822,20.2334014 L23.5938822,20.2465986 Z M34.6356732,17.7400786 L25.8798209,17.7400786 L32.0707086,11.5487196 C31.5842985,10.8652946 31.0418005,10.2242891 30.4502844,9.63277298 L30.4502844,9.63230165 C29.8587683,9.04125687 29.2177628,8.49970149 28.5348091,8.01329144 L22.3434501,14.2046504 L22.3434501,5.44879811 C21.533238,5.31258445 20.7008735,5.24047133 19.8515412,5.24 L19.8359874,5.24 C18.9866551,5.24047133 18.154762,5.31258445 17.3440786,5.44879811 L17.3440786,14.2046504 L11.1527196,8.01329144 C10.4692946,8.49970149 9.82876041,9.0417282 9.23818696,9.6332443 L9.23488767,9.63560094 C8.64431422,10.2261744 8.10323016,10.8662372 7.61682011,11.5487196 L13.8086504,17.7400786 L5.05279811,17.7400786 C5.05279811,17.7400786 4.844,19.3845405 4.844,20.2348154 L4.844,20.2451846 C4.844,21.0954595 4.91611312,21.9287667 5.05279811,22.7399214 L13.8086504,22.7399214 L7.61682011,28.9312804 C8.59058288,30.2976591 9.78634093,31.4938885 11.1527196,32.4671799 L17.3440786,26.2753496 L17.3440786,35.0316732 C18.1542907,35.1674156 18.9852412,35.2390573 19.8331595,35.24 L19.8543692,35.24 C20.7027588,35.2390573 21.534652,35.1674156 22.3434501,35.0316732 L22.3434501,26.2753496 L28.5352804,32.4671799 C29.2182341,31.9807698 29.8587683,31.4387431 30.4502844,30.8476984 L30.4516984,30.8462844 C31.0422718,30.2547683 31.5847698,29.6137628 32.0707086,28.9312804 L25.8788782,22.7399214 L34.6356732,22.7399214 C34.7718869,21.9301807 34.8430573,21.0992302 34.844,20.2508405 L34.844,20.2291595 C34.8430573,19.3807698 34.7718869,18.5498193 34.6356732,17.7400786 L34.6356732,17.7400786 Z"/>
</svg>

<svg xmlns="http://www.w3.org/2000/svg" width="40" height="40" viewBox="0 0 40 40"><path fill="#FF4A00" fill-rule="evenodd" d="M23.594 20.247a8.97 8.97 0 01-.576 3.166 8.994 8.994 0 01-3.168.577h-.013a8.992 8.992 0 01-3.166-.576 8.972 8.972 0 01-.577-3.167v-.014c0-1.114.205-2.181.576-3.166a8.964 8.964 0 013.167-.577h.013a8.95 8.95 0 013.168.577c.371.985.575 2.052.576 3.166v.014zm11.042-2.507H25.88l6.19-6.191a15.117 15.117 0 00-3.536-3.535l-6.19 6.19V5.45a15.071 15.071 0 00-2.492-.209h-.016c-.85 0-1.681.073-2.492.209v8.756l-6.191-6.192a14.979 14.979 0 00-1.915 1.62l-.003.003a15.03 15.03 0 00-1.618 1.913l6.192 6.191H5.053s-.209 1.645-.209 2.495v.01c0 .85.072 1.684.209 2.495h8.756L7.617 28.93a15.107 15.107 0 003.536 3.536l6.191-6.192v8.757c.81.135 1.641.207 2.49.208h.02c.849 0 1.68-.073 2.49-.208v-8.757l6.191 6.192a15.116 15.116 0 001.915-1.62h.002a15.146 15.146 0 001.619-1.916l-6.192-6.191h8.757c.136-.81.207-1.64.208-2.49v-.02c0-.85-.072-1.68-.208-2.49z"/></svg>
